img/binary.svg

<svg id="bold" enable-background="new 0 0 24 24" height="512" viewBox="0 0 24 24" width="512" xmlns="http://www.w3.org/2000/svg">
	<path d="m16.25 14c-.414 0-.75-.336-.75-.75v-4.5c0-.414.336-.75.75-.75s.75.336.75.75v4.5c0 .414-.336.75-.75.75z"/>
	<path d="m13.25 14c-.414 0-.75-.336-.75-.75v-4.5c0-.414.336-.75.75-.75s.75.336.75.75v4.5c0 .414-.336.75-.75.75z"/>
	<path d="m9.75 8h-1c-.96 0-1.75.79-1.75 1.75v2.5c0 .96.79 1.75 1.75 1.75h1c.96 0 1.75-.79 1.75-1.75v-2.5c0-.96-.79-1.75-1.75-1.75zm.25 4.25c0 .14-.11.25-.25.25h-1c-.14 0-.25-.11-.25-.25v-2.5c0-.14.11-.25.25-.25h1c.14 0 .25.11.25.25z"/>
	<path d="m22.25 4h-20.5c-.96 0-1.75.79-1.75 1.75v13.5c0 .96.79 1.75 1.75 1.75h7.658c-.118.501-.429 1.314-1.262 2.146-.143.143-.186.358-.108.545.077.187.26.309.462.309h7c.202 0 .385-.122.462-.309s.034-.402-.108-.545c-.831-.831-1.151-1.644-1.275-2.146h7.671c.96 0 1.75-.79 1.75-1.75v-13.5c0-.96-.79-1.75-1.75-1.75zm-.25 13h-20v-11h20z"/>
</svg>

<svg xmlns="http://www.w3.org/2000/svg" viewBox="0 0 24 24"><path d="M16.25 14a.75.75 0 0 1-.75-.75v-4.5a.75.75 0 1 1 1.5 0v4.5a.75.75 0 0 1-.75.75zm-3 0a.75.75 0 0 1-.75-.75v-4.5a.75.75 0 1 1 1.5 0v4.5a.75.75 0 0 1-.75.75zm-3.5-6h-1A1.76 1.76 0 0 0 7 9.75v2.5A1.76 1.76 0 0 0 8.75 14h1a1.76 1.76 0 0 0 1.75-1.75v-2.5A1.76 1.76 0 0 0 9.75 8zm.25 4.25a.24.24 0 0 1-.25.25h-1a.24.24 0 0 1-.25-.25v-2.5a.24.24 0 0 1 .25-.25h1a.24.24 0 0 1 .25.25zM22.25 4H1.75A1.76 1.76 0 0 0 0 5.75v13.5A1.76 1.76 0 0 0 1.75 21h7.658c-.118.5-.43 1.314-1.262 2.146A.5.5 0 0 0 8.5 24h7a.5.5 0 0 0 .462-.309c.077-.187.034-.402-.108-.545-.83-.83-1.15-1.644-1.275-2.146h7.67A1.76 1.76 0 0 0 24 19.25V5.75A1.76 1.76 0 0 0 22.25 4zM22 17H2V6h20z"/></svg>
